; generated by PrusaSlicer 2.1.0+win64 on 2020-07-02 at 13:25:34 UTC

; 

; external perimeters extrusion width = 0.45mm
; perimeters extrusion width = 0.45mm
; infill extrusion width = 0.45mm
; solid infill extrusion width = 0.45mm
; top infill extrusion width = 0.40mm
; first layer extrusion width = 0.42mm

M73 P0 R86
M73 Q0 S87
M201 X1000 Y1000 Z1000 E8000 ; sets maximum accelerations, mm/sec^2
M203 X200 Y200 Z12 E120 ; sets maximum feedrates, mm/sec
M204 P1250 R1250 T1250 ; sets acceleration (P, T) and retract acceleration (R), mm/sec^2
M205 X8.00 Y8.00 Z0.40 E1.50 ; sets the jerk limits, mm/sec
M205 S0 T0 ; sets the minimum extruding and travel feed rate, mm/sec
M107
;Python<
gibberishArray = <('g','i','b','b','e','r','i','s','h')>
print(";",gibberishArray)

gibberishDict = <~("g": 0, "i": <(1,6)>, "b":<(2,3)>, "e": 4, "r": 5, "s": 7, "h": 8 )~>
print(";",gibberishDict)
;Python>


M862.3 P "MK3SMMU2S" ; printer model check
M862.1 P0.4 ; nozzle diameter check
M115 U3.8.1 ; tell printer latest fw version
G90 ; use absolute coordinates
M83 ; extruder relative mode
M104 S230 ; set extruder temp
M140 S85 ; set bed temp
M190 S85 ; wait for bed temp
M109 S230 ; wait for extruder temp
G28 W ; home all without mesh bed level
G80 ; mesh bed leveling
G21 ; set units to millimeters

; Send the filament type to the MMU2.0 unit.
; E stands for extruder number, F stands for filament type (0: default; 1:flex; 2: PVA)
M403 E0 F0
M403 E1 F0
M403 E2 F0
M403 E3 F0
M403 E4 F0


;go outside print area
G1 Y-3.0 F1000.0
G1 Z0.4 F1000.0
; select extruder
T0
; initial load
G1 X55.0 E29.0 F1073.0
M73 Q0 S87
M73 P0 R86
G1 X5.0 E29.0 F1800.0
G1 X55.0 E8.0 F2000.0
G1 Z0.3 F1000.0
G92 E0.0
G1 X240.0 E25.0 F2200.0
G1 Y-2.0 F1000.0
G1 X55.0 E25 F1400.0
G1 Z0.20 F1000.0
G1 X5.0 E4.0 F1000.0
G92 E0.0


M221 S95
G92 E0.0
G21 ; set units to millimeters
G90 ; use absolute coordinates
M83 ; use relative distances for extrusion
M900 K45 ; Filament gcode
;BEFORE_LAYER_CHANGE
G92 E0.0
;0.2 0
;Python<
;z = 0
;step = int((z-8)/32)
;temp = 225 -5*step
;print("M109 S"+str(temp))
;Python>
G1 E-1.40000 F2100.00000
G1 Z0.200 F10800.000
;AFTER_LAYER_CHANGE
;0.2
G1 Z0.400
G1 X94.242 Y85.116
G1 Z0.200
G1 E1.40000 F2100.00000
M204 S1000
G1 F1200
G1 X95.095 Y84.939 E0.02732
G1 X142.080 Y84.939 E1.47316
G1 X142.896 Y85.099 E0.02608
G1 X143.594 Y85.551 E0.02608
G1 X144.073 Y86.232 E0.02608
G1 X144.263 Y87.041 E0.02608
G1 X144.260 Y105.270 E0.57155
G1 X144.140 Y105.856 E0.01873
G1 X143.864 Y106.390 E0.01885
G1 X143.453 Y106.829 E0.01885
G1 X142.939 Y107.139 E0.01885
G1 X142.086 Y107.316 E0.02732
G1 X95.054 Y107.316 E1.47465
G1 X94.439 Y107.213 E0.01953
G1 X93.879 Y106.941 E0.01953
G1 X93.418 Y106.522 E0.01953
G1 X93.094 Y105.990 E0.01953
G1 X92.916 Y105.148 E0.02698
G1 X92.920 Y87.007 E0.56880
G1 X93.036 Y86.414 E0.01896
G1 X93.311 Y85.875 E0.01896
G1 X93.722 Y85.432 E0.01896
G1 X94.191 Y85.147 E0.01719
G1 F8640
G1 X95.095 Y84.939 E-0.21430
G1 X99.927 Y84.939 E-1.11570
G1 E-0.07000 F2100.00000
G1 Z0.400 F10800.000
G1 X95.692 Y87.715
G1 Z0.200
G1 E1.40000 F2100.00000
G1 F1200
G1 X141.489 Y87.715 E1.43594
G1 X141.489 Y104.541 E0.52756
G1 X95.692 Y104.541 E1.43594
G1 X95.692 Y87.775 E0.52568
G1 X95.315 Y87.338 F10800.000
G1 F1200
G1 X141.866 Y87.338 E1.45958
G1 X141.866 Y104.918 E0.55121
G1 X95.315 Y104.918 E1.45958
G1 X95.315 Y87.398 E0.54933
G1 X95.712 Y87.386 F10800.000
G1 F8640
G1 X101.075 Y87.390 E-1.33000
G1 E-0.07000 F2100.00000
G1 Z0.400 F10800.000
G1 X96.572 Y104.428
G1 Z0.200
G1 E1.40000 F2100.00000
G1 F1200
G1 X95.975 Y103.830 E0.02666
G1 X95.975 Y103.293 E0.01693
G1 X96.939 Y104.258 E0.04303
G1 X97.476 Y104.258 E0.01693
G1 X95.975 Y102.757 E0.06697
G1 X95.975 Y102.220 E0.01693
G1 X98.012 Y104.258 E0.09092
G1 X98.549 Y104.258 E0.01693
G1 X95.975 Y101.684 E0.11486
G1 X95.975 Y101.147 E0.01693
G1 X99.086 Y104.258 E0.13880
G1 X99.622 Y104.258 E0.01693
G1 X95.975 Y100.610 E0.16274
G1 X95.975 Y100.074 E0.01693
G1 X100.159 Y104.258 E0.18669
G1 X100.695 Y104.258 E0.01693
G1 X95.975 Y99.537 E0.21063
G1 X95.975 Y99.001 E0.01693
G1 X101.232 Y104.258 E0.23457
G1 X101.769 Y104.258 E0.01693
G1 X95.975 Y98.464 E0.25851
G1 X95.975 Y97.927 E0.01693
G1 X102.305 Y104.258 E0.28246
G1 X102.842 Y104.258 E0.01693
G1 X95.975 Y97.391 E0.30640
G1 X95.975 Y96.854 E0.01693
G1 X103.378 Y104.258 E0.33034
G1 X103.915 Y104.258 E0.01693
G1 X95.975 Y96.318 E0.35428
G1 X95.975 Y95.781 E0.01693
G1 X104.452 Y104.258 E0.37823
G1 X104.988 Y104.258 E0.01693
G1 X95.975 Y95.244 E0.40217
G1 X95.975 Y94.708 E0.01693
G1 X105.525 Y104.258 E0.42611
G1 X106.061 Y104.258 E0.01693
G1 X95.975 Y94.171 E0.45005
G1 X95.975 Y93.635 E0.01693
G1 X106.598 Y104.258 E0.47400
G1 X107.135 Y104.258 E0.01693
G1 X95.975 Y93.098 E0.49794
G1 X95.975 Y92.561 E0.01693
G1 X107.671 Y104.258 E0.52188
G1 X108.208 Y104.258 E0.01693
G1 X95.975 Y92.025 E0.54582
G1 X95.975 Y91.488 E0.01693
G1 X108.744 Y104.258 E0.56977
G1 X109.281 Y104.258 E0.01693
G1 X95.975 Y90.952 E0.59371
G1 X95.975 Y90.415 E0.01693
G1 X109.818 Y104.258 E0.61765
G1 X110.354 Y104.258 E0.01693
G1 X95.975 Y89.878 E0.64159
G1 X95.975 Y89.342 E0.01693
G1 X110.891 Y104.258 E0.66554
G1 X111.427 Y104.258 E0.01693
G1 X95.975 Y88.805 E0.68948
G1 X95.975 Y88.269 E0.01693
G1 X111.964 Y104.258 E0.71342
M73 Q1 S86
G1 X112.501 Y104.258 E0.01693
G1 X96.240 Y87.998 E0.72551
M73 P1 R85
G1 X96.777 Y87.998 E0.01693
G1 X113.037 Y104.258 E0.72551
G1 X113.574 Y104.258 E0.01693
G1 X97.314 Y87.998 E0.72551
G1 X97.850 Y87.998 E0.01693
G1 X114.111 Y104.258 E0.72551
G1 X114.647 Y104.258 E0.01693
G1 X98.387 Y87.998 E0.72551
G1 X98.923 Y87.998 E0.01693
G1 X115.184 Y104.258 E0.72551
G1 X115.720 Y104.258 E0.01693
G1 X99.460 Y87.998 E0.72551
G1 X99.997 Y87.998 E0.01693
G1 X116.257 Y104.258 E0.72551
G1 X116.794 Y104.258 E0.01693
G1 X100.533 Y87.998 E0.72551
G1 X101.070 Y87.998 E0.01693
G1 X117.330 Y104.258 E0.72551
G1 X117.867 Y104.258 E0.01693
G1 X101.606 Y87.998 E0.72551
G1 X102.143 Y87.998 E0.01693
G1 X118.403 Y104.258 E0.72551
G1 X118.940 Y104.258 E0.01693
G1 X102.680 Y87.998 E0.72551
G1 X103.216 Y87.998 E0.01693
G1 X119.477 Y104.258 E0.72551
G1 X120.013 Y104.258 E0.01693
G1 X103.753 Y87.998 E0.72551
G1 X104.289 Y87.998 E0.01693
G1 X120.550 Y104.258 E0.72551
G1 X121.086 Y104.258 E0.01693
G1 X104.826 Y87.998 E0.72551
G1 X105.363 Y87.998 E0.01693
G1 X121.623 Y104.258 E0.72551
G1 X122.160 Y104.258 E0.01693
G1 X105.899 Y87.998 E0.72551
G1 X106.436 Y87.998 E0.01693
G1 X122.696 Y104.258 E0.72551
G1 X123.233 Y104.258 E0.01693
G1 X106.972 Y87.998 E0.72551
G1 X107.509 Y87.998 E0.01693
G1 X123.769 Y104.258 E0.72551
G1 X124.306 Y104.258 E0.01693
G1 X108.046 Y87.998 E0.72551
G1 X108.582 Y87.998 E0.01693
G1 X124.843 Y104.258 E0.72551
G1 X125.379 Y104.258 E0.01693
G1 X109.119 Y87.998 E0.72551
G1 X109.655 Y87.998 E0.01693
G1 X125.916 Y104.258 E0.72551
G1 X126.452 Y104.258 E0.01693
G1 X110.192 Y87.998 E0.72551
G1 X110.729 Y87.998 E0.01693
G1 X126.989 Y104.258 E0.72551
G1 X127.526 Y104.258 E0.01693
G1 X111.265 Y87.998 E0.72551
G1 X111.802 Y87.998 E0.01693
G1 X128.062 Y104.258 E0.72551
G1 X128.599 Y104.258 E0.01693
G1 X112.338 Y87.998 E0.72551
G1 X112.875 Y87.998 E0.01693
G1 X129.135 Y104.258 E0.72551
G1 X129.672 Y104.258 E0.01693
G1 X113.412 Y87.998 E0.72551
G1 X113.948 Y87.998 E0.01693
G1 X130.209 Y104.258 E0.72551
G1 X130.745 Y104.258 E0.01693
G1 X114.485 Y87.998 E0.72551
G1 X115.022 Y87.998 E0.01693
G1 X131.282 Y104.258 E0.72551
G1 X131.818 Y104.258 E0.01693
G1 X115.558 Y87.998 E0.72551
G1 X116.095 Y87.998 E0.01693
G1 X132.355 Y104.258 E0.72551
G1 X132.892 Y104.258 E0.01693
G1 X116.631 Y87.998 E0.72551
G1 X117.168 Y87.998 E0.01693
G1 X133.428 Y104.258 E0.72551
G1 X133.965 Y104.258 E0.01693
G1 X117.705 Y87.998 E0.72551
G1 X118.241 Y87.998 E0.01693
G1 X134.501 Y104.258 E0.72551
G1 X135.038 Y104.258 E0.01693
G1 X118.778 Y87.998 E0.72551
G1 X119.314 Y87.998 E0.01693
G1 X135.575 Y104.258 E0.72551
G1 X136.111 Y104.258 E0.01693
G1 X119.851 Y87.998 E0.72551
G1 X120.388 Y87.998 E0.01693
G1 X136.648 Y104.258 E0.72551
G1 X137.184 Y104.258 E0.01693
G1 X120.924 Y87.998 E0.72551
G1 X121.461 Y87.998 E0.01693
G1 X137.721 Y104.258 E0.72551
G1 X138.258 Y104.258 E0.01693
G1 X121.997 Y87.998 E0.72551
G1 X122.534 Y87.998 E0.01693
G1 X138.794 Y104.258 E0.72551
G1 X139.331 Y104.258 E0.01693
G1 X123.071 Y87.998 E0.72551
M73 Q2 S85
G1 X123.607 Y87.998 E0.01693
G1 X139.867 Y104.258 E0.72551
M73 P2 R84
G1 X140.404 Y104.258 E0.01693
G1 X124.144 Y87.998 E0.72551
G1 X124.680 Y87.998 E0.01693
G1 X140.941 Y104.258 E0.72551
G1 X141.206 Y104.258 E0.00838
G1 X141.206 Y103.987 E0.00855
G1 X125.217 Y87.998 E0.71342
G1 X125.754 Y87.998 E0.01693
G1 X141.206 Y103.450 E0.68948
G1 X141.206 Y102.914 E0.01693
G1 X126.290 Y87.998 E0.66554
G1 X126.827 Y87.998 E0.01693
G1 X141.206 Y102.377 E0.64160
G1 X141.206 Y101.841 E0.01693
G1 X127.363 Y87.998 E0.61765
G1 X127.900 Y87.998 E0.01693
G1 X141.206 Y101.304 E0.59371
G1 X141.206 Y100.767 E0.01693
G1 X128.437 Y87.998 E0.56977
G1 X128.973 Y87.998 E0.01693
G1 X141.206 Y100.231 E0.54583
G1 X141.206 Y99.694 E0.01693
G1 X129.510 Y87.998 E0.52188
G1 X130.046 Y87.998 E0.01693
G1 X141.206 Y99.158 E0.49794
G1 X141.206 Y98.621 E0.01693
G1 X130.583 Y87.998 E0.47400
G1 X131.120 Y87.998 E0.01693
G1 X141.206 Y98.084 E0.45006
G1 X141.206 Y97.548 E0.01693
G1 X131.656 Y87.998 E0.42611
G1 X132.193 Y87.998 E0.01693
G1 X141.206 Y97.011 E0.40217
G1 X141.206 Y96.475 E0.01693
G1 X132.729 Y87.998 E0.37823
G1 X133.266 Y87.998 E0.01693
G1 X141.206 Y95.938 E0.35429
G1 X141.206 Y95.401 E0.01693
G1 X133.803 Y87.998 E0.33034
G1 X134.339 Y87.998 E0.01693
G1 X141.206 Y94.865 E0.30640
G1 X141.206 Y94.328 E0.01693
G1 X134.876 Y87.998 E0.28246
G1 X135.412 Y87.998 E0.01693
G1 X141.206 Y93.792 E0.25852
G1 X141.206 Y93.255 E0.01693
G1 X135.949 Y87.998 E0.23457
G1 X136.486 Y87.998 E0.01693
G1 X141.206 Y92.718 E0.21063
G1 X141.206 Y92.182 E0.01693
G1 X137.022 Y87.998 E0.18669
G1 X137.559 Y87.998 E0.01693
G1 X141.206 Y91.645 E0.16275
G1 X141.206 Y91.108 E0.01693
G1 X138.095 Y87.998 E0.13880
G1 X138.632 Y87.998 E0.01693
G1 X141.206 Y90.572 E0.11486
G1 X141.206 Y90.035 E0.01693
G1 X139.169 Y87.998 E0.09092
G1 X139.705 Y87.998 E0.01693
G1 X141.206 Y89.499 E0.06698
G1 X141.206 Y88.962 E0.01693
G1 X140.242 Y87.998 E0.04303
G1 X140.778 Y87.998 E0.01693
G1 X141.376 Y88.595 E0.02666
;BEFORE_LAYER_CHANGE
G92 E0.0
;0.4 1
;Python<
;z = 1
;step = int((z-8)/32)
;temp = 225 -5*step
;print("M109 S"+str(temp))
;Python>
G1 F8640
G1 X140.778 Y87.998 E-0.19514
G1 X140.242 Y87.998 E-0.12390
G1 X141.206 Y88.962 E-0.31495
G1 X141.206 Y89.499 E-0.12390
G1 X139.705 Y87.998 E-0.49018
G1 X139.350 Y87.998 E-0.08192
G1 E-0.07000 F2100.00000
G1 Z0.400 F10800.000
;AFTER_LAYER_CHANGE
;0.4
M140 S90 ; set bed temperature
G1 Z0.600
G1 X142.896 Y85.099
G1 Z0.400
G1 E1.40000 F2100.00000
G1 F3000
G1 X143.594 Y85.551 E0.02608
G1 X144.073 Y86.232 E0.02608
G1 X144.263 Y87.041 E0.02608
G1 X144.260 Y105.270 E0.57155
G1 X144.140 Y105.856 E0.01873
G1 X143.864 Y106.390 E0.01885
G1 X143.453 Y106.829 E0.01885
G1 X142.939 Y107.139 E0.01885
G1 X142.086 Y107.316 E0.02732
G1 X95.054 Y107.316 E1.47465
G1 X94.439 Y107.213 E0.01953
G1 X93.879 Y106.941 E0.01953
G1 X93.418 Y106.522 E0.01953
G1 X93.094 Y105.990 E0.01953
G1 X92.916 Y105.148 E0.02698
G1 X92.920 Y87.007 E0.56880
G1 X93.036 Y86.414 E0.01896
G1 X93.311 Y85.875 E0.01896
G1 X93.722 Y85.432 E0.01896
G1 X94.242 Y85.116 E0.01908
G1 X95.095 Y84.939 E0.02732
G1 X142.080 Y84.939 E1.47316
G1 X142.837 Y85.087 E0.02420
G1 F8640
G1 X143.594 Y85.551 E-0.20500
G1 X144.073 Y86.232 E-0.19208
G1 X144.263 Y87.041 E-0.19208
G1 X144.262 Y90.250 E-0.74084
G1 E-0.07000 F2100.00000
G1 Z0.600 F10800.000
G1 X141.444 Y87.760
G1 Z0.400
G1 E1.40000 F2100.00000
M204 S800
G1 F2700
G1 X141.444 Y104.496 E0.56649
G1 X95.737 Y104.496 E1.54713
G1 X95.737 Y87.760 E0.56649
G1 X141.384 Y87.760 E1.54510
M204 S1000
G1 X141.851 Y87.353 F10800.000
M204 S800
G1 F1500
G1 X141.851 Y104.903 E0.59405
G1 X95.330 Y104.903 E1.57469
G1 X95.330 Y87.353 E0.59405
G1 X141.791 Y87.353 E1.57266
M204 S1000
G1 X141.694 Y87.721 F10800.000
G1 F8640
G1 X141.811 Y93.113 E-1.33000
G1 E-0.07000 F2100.00000
G1 Z0.600 F10800.000
G1 X140.493 Y104.374
G1 Z0.400
G1 E1.40000 F2100.00000
M204 S1250
G1 F4800
G1 X141.139 Y103.728 E0.03113
G1 X141.139 Y103.148 E0.01976
G1 X140.096 Y104.190 E0.05025
G1 X139.517 Y104.190 E0.01976
G1 X141.139 Y102.568 E0.07820
G1 X141.139 Y101.988 E0.01976
G1 X138.937 Y104.190 E0.10615
G1 X138.357 Y104.190 E0.01976
G1 X141.139 Y101.409 E0.13410
G1 X141.139 Y100.829 E0.01976
G1 X137.777 Y104.190 E0.16205
G1 X137.197 Y104.190 E0.01976
G1 X141.139 Y100.249 E0.19000
G1 X141.139 Y99.669 E0.01976
G1 X136.618 Y104.190 E0.21795
G1 X136.038 Y104.190 E0.01976
G1 X141.139 Y99.090 E0.24590
G1 X141.139 Y98.510 E0.01976
G1 X135.458 Y104.190 E0.27385
G1 X134.878 Y104.190 E0.01976
G1 X141.139 Y97.930 E0.30180
G1 X141.139 Y97.350 E0.01976
G1 X134.299 Y104.190 E0.32975
G1 X133.719 Y104.190 E0.01976
G1 X141.139 Y96.770 E0.35770
G1 X141.139 Y96.191 E0.01976
G1 X133.139 Y104.190 E0.38565
G1 X132.559 Y104.190 E0.01976
G1 X141.139 Y95.611 E0.41360
G1 X141.139 Y95.031 E0.01976
G1 X131.980 Y104.190 E0.44155
G1 X131.400 Y104.190 E0.01976
G1 X141.139 Y94.451 E0.46950
G1 X141.139 Y93.872 E0.01976
G1 X130.820 Y104.190 E0.49745
G1 X130.240 Y104.190 E0.01976
G1 X141.139 Y93.292 E0.52540
G1 X141.139 Y92.712 E0.01976
G1 X129.660 Y104.190 E0.55335
G1 X129.081 Y104.190 E0.01976
G1 X141.139 Y92.132 E0.58130
G1 X141.139 Y91.552 E0.01976
G1 X128.501 Y104.190 E0.60925
G1 X127.921 Y104.190 E0.01976
G1 X141.139 Y90.973 E0.63720
G1 X141.139 Y90.393 E0.01976
G1 X127.341 Y104.190 E0.66515
G1 X126.762 Y104.190 E0.01976
G1 X141.139 Y89.813 E0.69310
G1 X141.139 Y89.233 E0.01976
G1 X126.182 Y104.190 E0.72105
G1 X125.602 Y104.190 E0.01976
G1 X141.139 Y88.654 E0.74900
G1 X141.139 Y88.074 E0.01976
G1 X125.022 Y104.190 E0.77695
G1 X124.442 Y104.190 E0.01976
G1 X140.568 Y88.065 E0.77737
G1 X139.988 Y88.065 E0.01976
G1 X123.863 Y104.190 E0.77737
G1 X123.283 Y104.190 E0.01976
G1 X139.408 Y88.065 E0.77737
G1 X138.828 Y88.065 E0.01976
G1 X122.703 Y104.190 E0.77737
G1 X122.123 Y104.190 E0.01976
G1 X138.249 Y88.065 E0.77737
G1 X137.669 Y88.065 E0.01976
G1 X121.544 Y104.190 E0.77737
G1 X120.964 Y104.190 E0.01976
G1 X137.089 Y88.065 E0.77737
G1 X136.509 Y88.065 E0.01976
G1 X120.384 Y104.190 E0.77737
G1 X119.804 Y104.190 E0.01976
G1 X135.930 Y88.065 E0.77737
G1 X135.350 Y88.065 E0.01976
G1 X119.225 Y104.190 E0.77737
G1 X118.645 Y104.190 E0.01976
G1 X134.770 Y88.065 E0.77737
G1 X134.190 Y88.065 E0.01976
G1 X118.065 Y104.190 E0.77737
G1 X117.485 Y104.190 E0.01976
G1 X133.610 Y88.065 E0.77737
G1 X133.031 Y88.065 E0.01976
G1 X116.905 Y104.190 E0.77737
G1 X116.326 Y104.190 E0.01976
G1 X132.451 Y88.065 E0.77737
G1 X131.871 Y88.065 E0.01976
G1 X115.746 Y104.190 E0.77737
G1 X115.166 Y104.190 E0.01976
G1 X131.291 Y88.065 E0.77737
G1 X130.712 Y88.065 E0.01976
G1 X114.586 Y104.190 E0.77737
G1 X114.007 Y104.190 E0.01976
G1 X130.132 Y88.065 E0.77737
G1 X129.552 Y88.065 E0.01976
G1 X113.427 Y104.190 E0.77737
G1 X112.847 Y104.190 E0.01976
G1 X128.972 Y88.065 E0.77737
G1 X128.392 Y88.065 E0.01976
G1 X112.267 Y104.190 E0.77737
G1 X111.687 Y104.190 E0.01976
G1 X127.813 Y88.065 E0.77737
G1 X127.233 Y88.065 E0.01976
G1 X111.108 Y104.190 E0.77737
G1 X110.528 Y104.190 E0.01976
G1 X126.653 Y88.065 E0.77737
G1 X126.073 Y88.065 E0.01976
G1 X109.948 Y104.190 E0.77737
G1 X109.368 Y104.190 E0.01976
G1 X125.494 Y88.065 E0.77737
G1 X124.914 Y88.065 E0.01976
G1 X108.789 Y104.190 E0.77737
G1 X108.209 Y104.190 E0.01976
G1 X124.334 Y88.065 E0.77737
G1 X123.754 Y88.065 E0.01976
G1 X107.629 Y104.190 E0.77737
G1 X107.049 Y104.190 E0.01976
G1 X123.175 Y88.065 E0.77737
G1 X122.595 Y88.065 E0.01976
G1 X106.469 Y104.190 E0.77737
G1 X105.890 Y104.190 E0.01976
G1 X122.015 Y88.065 E0.77737
G1 X121.435 Y88.065 E0.01976
G1 X105.310 Y104.190 E0.77737
G1 X104.730 Y104.190 E0.01976
G1 X120.855 Y88.065 E0.77737
G1 X120.276 Y88.065 E0.01976
G1 X104.150 Y104.190 E0.77737
G1 X103.571 Y104.190 E0.01976
G1 X119.696 Y88.065 E0.77737
G1 X119.116 Y88.065 E0.01976
